build/assets/images/proyectos/logos/logo-fundacion-juanmarch.svg

<svg width="200" height="200" viewBox="0 0 200 200" fill="none" xmlns="http://www.w3.org/2000/svg">
<rect width="200" height="200" fill="white"/>
<g clip-path="url(#clip0)">
<path d="M13.9896 99.7426V100.891H11.209V104.881H10V96.4179H14.8358V97.5664H11.209V99.7426H13.9896Z" fill="black"/>
<path d="M21.0592 105.002C20.5353 105.002 20.0477 104.905 19.5963 104.711C19.145 104.51 18.7581 104.236 18.4357 103.889C18.1617 103.591 17.9441 103.24 17.7829 102.837C17.6297 102.435 17.5532 101.947 17.5532 101.375V96.4179H18.7621V101.435C18.7621 101.838 18.8065 102.173 18.8951 102.439C18.9918 102.696 19.1248 102.918 19.2941 103.103C19.5036 103.337 19.7575 103.523 20.0557 103.66C20.362 103.789 20.6965 103.853 21.0592 103.853C21.4218 103.853 21.7523 103.789 22.0505 103.66C22.3568 103.523 22.6147 103.337 22.8242 103.103C22.9935 102.918 23.1224 102.696 23.2111 102.439C23.3078 102.173 23.3562 101.838 23.3562 101.435V96.4179H24.5651V101.375C24.5651 101.947 24.4845 102.435 24.3233 102.837C24.1702 103.24 23.9566 103.591 23.6826 103.889C23.3602 104.236 22.9733 104.51 22.522 104.711C22.0706 104.905 21.583 105.002 21.0592 105.002Z" fill="black"/>
<path d="M29.3434 98.6666V104.881H28.1344V96.4179H28.9807L34.0583 102.632V96.4179H35.2673V104.881H34.421L29.3434 98.6666Z" fill="black"/>
<path d="M44.8728 100.649C44.8728 100.174 44.7801 99.7305 44.5948 99.3194C44.4175 98.9084 44.1676 98.5618 43.8452 98.2797C43.5792 98.046 43.2569 97.8687 42.878 97.7478C42.5073 97.6269 42.0237 97.5664 41.4273 97.5664H40.1579V103.732H41.4273C42.0237 103.732 42.5073 103.672 42.878 103.551C43.2569 103.43 43.5792 103.253 43.8452 103.019C44.1676 102.737 44.4175 102.39 44.5948 101.979C44.7801 101.568 44.8728 101.125 44.8728 100.649ZM38.9489 104.881V96.4179H41.4877C42.1648 96.4179 42.7289 96.4864 43.1803 96.6234C43.6397 96.7605 44.0427 96.9579 44.3892 97.2158C44.9131 97.6027 45.3242 98.0943 45.6224 98.6908C45.9287 99.2872 46.0818 99.94 46.0818 100.649C46.0818 101.359 45.9327 102.011 45.6345 102.608C45.3363 103.204 44.9252 103.696 44.4013 104.083C44.0548 104.341 43.6518 104.538 43.1924 104.675C42.733 104.812 42.1648 104.881 41.4877 104.881H38.9489Z" fill="black"/>
<path d="M53.781 102.705H50.2145L49.332 104.881H48.0747L51.5807 96.4179H52.4269L55.9329 104.881H54.6756L53.781 102.705ZM50.6981 101.556H53.3095L52.0038 98.4127L50.6981 101.556Z" fill="black"/>
<path d="M57.9296 100.649C57.9296 100.037 58.0384 99.4685 58.256 98.9446C58.4736 98.4127 58.7718 97.9533 59.1507 97.5664C59.5375 97.1715 59.9889 96.8612 60.5047 96.6355C61.0286 96.4099 61.5968 96.297 62.2093 96.297C62.8138 96.297 63.386 96.4139 63.926 96.6476C64.4741 96.8733 64.9335 97.1917 65.3043 97.6027L64.4943 98.4006C64.2444 98.1266 63.914 97.9009 63.5029 97.7236C63.0999 97.5382 62.6687 97.4455 62.2093 97.4455C61.7741 97.4455 61.3711 97.5261 61.0004 97.6873C60.6296 97.8485 60.3032 98.0742 60.0211 98.3643C59.7471 98.6464 59.5295 98.9849 59.3683 99.3799C59.2151 99.7667 59.1386 100.19 59.1386 100.649C59.1386 101.125 59.2192 101.56 59.3804 101.955C59.5416 102.35 59.7632 102.688 60.0453 102.97C60.3354 103.253 60.6739 103.47 61.0608 103.623C61.4477 103.776 61.8668 103.853 62.3181 103.853C62.6002 103.853 62.8622 103.817 63.1039 103.744C63.3538 103.672 63.5795 103.579 63.781 103.466C63.9825 103.353 64.1638 103.228 64.325 103.091C64.4862 102.946 64.6272 102.801 64.7481 102.656L65.6065 103.43C65.4211 103.664 65.2075 103.877 64.9658 104.071C64.724 104.264 64.462 104.429 64.1799 104.566C63.8978 104.703 63.5956 104.808 63.2732 104.881C62.9589 104.961 62.6405 105.002 62.3181 105.002C61.6895 105.002 61.1051 104.893 60.5651 104.675C60.0332 104.458 59.5698 104.155 59.1748 103.768C58.788 103.382 58.4817 102.922 58.256 102.39C58.0384 101.858 57.9296 101.278 57.9296 100.649Z" fill="black"/>
<path d="M68.4528 96.4179H69.6617V104.881H68.4528V96.4179Z" fill="black"/>
<path d="M72.6874 100.649C72.6874 100.037 72.7962 99.4645 73.0138 98.9326C73.2314 98.4006 73.5297 97.9412 73.9085 97.5543C74.2873 97.1594 74.7346 96.8531 75.2504 96.6355C75.7662 96.4099 76.3224 96.297 76.9188 96.297C77.5152 96.297 78.0713 96.4099 78.5871 96.6355C79.103 96.8531 79.5503 97.1594 79.9291 97.5543C80.3079 97.9412 80.6061 98.4006 80.8237 98.9326C81.0413 99.4645 81.1501 100.037 81.1501 100.649C81.1501 101.27 81.0413 101.846 80.8237 102.378C80.6061 102.902 80.3079 103.361 79.9291 103.756C79.5503 104.143 79.103 104.449 78.5871 104.675C78.0713 104.893 77.5152 105.002 76.9188 105.002C76.3224 105.002 75.7662 104.893 75.2504 104.675C74.7346 104.449 74.2873 104.143 73.9085 103.756C73.5297 103.361 73.2314 102.902 73.0138 102.378C72.7962 101.846 72.6874 101.27 72.6874 100.649ZM73.8964 100.649C73.8964 101.109 73.9729 101.536 74.1261 101.931C74.2792 102.318 74.4888 102.656 74.7547 102.946C75.0288 103.228 75.3471 103.45 75.7098 103.611C76.0806 103.772 76.4836 103.853 76.9188 103.853C77.354 103.853 77.753 103.772 78.1156 103.611C78.4864 103.45 78.8048 103.228 79.0707 102.946C79.3448 102.656 79.5583 102.318 79.7115 101.931C79.8646 101.536 79.9412 101.109 79.9412 100.649C79.9412 100.19 79.8646 99.7667 79.7115 99.3799C79.5583 98.9849 79.3448 98.6464 79.0707 98.3643C78.8048 98.0742 78.4864 97.8485 78.1156 97.6873C77.753 97.5261 77.354 97.4455 76.9188 97.4455C76.4836 97.4455 76.0806 97.5261 75.7098 97.6873C75.3471 97.8485 75.0288 98.0742 74.7547 98.3643C74.4888 98.6464 74.2792 98.9849 74.1261 99.3799C73.9729 99.7667 73.8964 100.19 73.8964 100.649ZM76.4956 95.8134L77.2815 94H78.5509L77.2815 95.8134H76.4956Z" fill="black"/>
<path d="M85.3758 98.6666V104.881H84.1669V96.4179H85.0131L90.0908 102.632V96.4179H91.2997V104.881H90.4535L85.3758 98.6666Z" fill="black"/>
<path d="M99.739 103.176C99.8358 103.386 99.9808 103.551 100.174 103.672C100.376 103.793 100.605 103.853 100.863 103.853C101.049 103.853 101.226 103.809 101.395 103.72C101.573 103.631 101.714 103.519 101.818 103.382C101.891 103.285 101.947 103.168 101.988 103.031C102.028 102.886 102.048 102.684 102.048 102.426V96.4179H103.257V102.342C103.257 102.68 103.233 102.962 103.185 103.188C103.136 103.406 103.064 103.603 102.967 103.78C102.757 104.143 102.467 104.437 102.097 104.663C101.726 104.889 101.315 105.002 100.863 105.002C100.372 105.002 99.9284 104.885 99.5335 104.651C99.1386 104.409 98.8484 104.071 98.6631 103.635L99.739 103.176Z" fill="black"/>
<path d="M110.208 105.002C109.684 105.002 109.197 104.905 108.745 104.711C108.294 104.51 107.907 104.236 107.585 103.889C107.311 103.591 107.093 103.24 106.932 102.837C106.779 102.435 106.702 101.947 106.702 101.375V96.4179H107.911V101.435C107.911 101.838 107.955 102.173 108.044 102.439C108.141 102.696 108.274 102.918 108.443 103.103C108.653 103.337 108.907 103.523 109.205 103.66C109.511 103.789 109.845 103.853 110.208 103.853C110.571 103.853 110.901 103.789 111.199 103.66C111.506 103.523 111.764 103.337 111.973 103.103C112.142 102.918 112.271 102.696 112.36 102.439C112.457 102.173 112.505 101.838 112.505 101.435V96.4179H113.714V101.375C113.714 101.947 113.634 102.435 113.472 102.837C113.319 103.24 113.106 103.591 112.832 103.889C112.509 104.236 112.122 104.51 111.671 104.711C111.22 104.905 110.732 105.002 110.208 105.002Z" fill="black"/>
<path d="M121.962 102.705H118.396L117.513 104.881H116.256L119.762 96.4179H120.608L124.114 104.881H122.857L121.962 102.705ZM118.879 101.556H121.491L120.185 98.4127L118.879 101.556Z" fill="black"/>
<path d="M127.985 98.6666V104.881H126.776V96.4179H127.622L132.7 102.632V96.4179H133.909V104.881H133.062L127.985 98.6666Z" fill="black"/>
<path d="M146.893 103.067H146.047L143.569 99.1864V104.881H142.36V96.4179H143.206L146.47 101.58L149.735 96.4179H150.581V104.881H149.372V99.1864L146.893 103.067Z" fill="black"/>
<path d="M158.951 102.705H155.385L154.502 104.881H153.245L156.751 96.4179H157.597L161.103 104.881H159.846L158.951 102.705ZM155.868 101.556H158.48L157.174 98.4127L155.868 101.556Z" fill="black"/>
<path d="M164.974 100.891V104.881H163.765V96.4179H166.727C167.113 96.4179 167.436 96.4622 167.694 96.5509C167.952 96.6315 168.177 96.7524 168.371 96.9136C168.629 97.1231 168.83 97.377 168.975 97.6752C169.128 97.9734 169.205 98.2999 169.205 98.6545C169.205 99.0091 169.128 99.3355 168.975 99.6338C168.83 99.932 168.629 100.186 168.371 100.395C168.234 100.508 168.085 100.601 167.923 100.673C167.77 100.746 167.589 100.802 167.379 100.843L170.414 104.881H168.951L165.941 100.891H164.974ZM166.666 99.7426C166.94 99.7426 167.154 99.7144 167.307 99.6579C167.46 99.6015 167.585 99.5249 167.682 99.4282C167.891 99.2187 167.996 98.9608 167.996 98.6545C167.996 98.5014 167.968 98.3603 167.911 98.2314C167.855 98.0943 167.778 97.9775 167.682 97.8808C167.585 97.784 167.46 97.7075 167.307 97.6511C167.154 97.5946 166.94 97.5664 166.666 97.5664H164.974V99.7426H166.666Z" fill="black"/>
<path d="M172.344 100.649C172.344 100.037 172.453 99.4685 172.67 98.9446C172.888 98.4127 173.186 97.9533 173.565 97.5664C173.952 97.1715 174.403 96.8612 174.919 96.6355C175.443 96.4099 176.011 96.297 176.624 96.297C177.228 96.297 177.8 96.4139 178.34 96.6476C178.888 96.8733 179.348 97.1917 179.719 97.6027L178.909 98.4006C178.659 98.1266 178.328 97.9009 177.917 97.7236C177.514 97.5382 177.083 97.4455 176.624 97.4455C176.188 97.4455 175.785 97.5261 175.415 97.6873C175.044 97.8485 174.718 98.0742 174.435 98.3643C174.161 98.6464 173.944 98.9849 173.783 99.3799C173.63 99.7667 173.553 100.19 173.553 100.649C173.553 101.125 173.634 101.56 173.795 101.955C173.956 102.35 174.178 102.688 174.46 102.97C174.75 103.253 175.088 103.47 175.475 103.623C175.862 103.776 176.281 103.853 176.733 103.853C177.015 103.853 177.277 103.817 177.518 103.744C177.768 103.672 177.994 103.579 178.195 103.466C178.397 103.353 178.578 103.228 178.739 103.091C178.901 102.946 179.042 102.801 179.163 102.656L180.021 103.43C179.836 103.664 179.622 103.877 179.38 104.071C179.138 104.264 178.876 104.429 178.594 104.566C178.312 104.703 178.01 104.808 177.688 104.881C177.373 104.961 177.055 105.002 176.733 105.002C176.104 105.002 175.52 104.893 174.98 104.675C174.448 104.458 173.984 104.155 173.589 103.768C173.202 103.382 172.896 102.922 172.67 102.39C172.453 101.858 172.344 101.278 172.344 100.649Z" fill="black"/>
<path d="M188.791 100.891H184.076V104.881H182.867V96.4179H184.076V99.7426H188.791V96.4179H190V104.881H188.791V100.891Z" fill="black"/>
</g>
<defs>
<clipPath id="clip0">
<rect width="180" height="40" fill="white" transform="translate(10 80)"/>
</clipPath>
</defs>
</svg>

<svg width="200" height="200" fill="none" xmlns="http://www.w3.org/2000/svg"><path fill="#fff" d="M0 0h200v200H0z"/><g clip-path="url(#clip0)" fill="#000"><path d="M13.99 99.743v1.148h-2.781v3.99H10v-8.463h4.836v1.148h-3.627v2.177h2.78zm7.07 5.259a3.665 3.665 0 01-1.464-.291 3.518 3.518 0 01-1.16-.822 3.406 3.406 0 01-.653-1.052c-.153-.402-.23-.89-.23-1.462v-4.957h1.21v5.017c0 .403.043.738.132 1.004.097.257.23.479.4.664.209.234.462.42.76.557.307.129.642.193 1.004.193.363 0 .693-.064.991-.193.307-.137.565-.323.774-.557.17-.185.298-.407.387-.664.097-.266.145-.601.145-1.004v-5.017h1.21v4.957c0 .572-.081 1.06-.243 1.462a3.232 3.232 0 01-.64 1.052c-.323.347-.71.621-1.161.822a3.665 3.665 0 01-1.463.291zm8.283-6.335v6.214h-1.209v-8.463h.847l5.077 6.214v-6.214h1.21v8.463h-.847l-5.078-6.214zm15.53 1.982c0-.475-.093-.918-.278-1.33a2.872 2.872 0 00-.75-1.04 2.677 2.677 0 00-.967-.531c-.37-.121-.854-.182-1.45-.182h-1.27v6.166h1.27c.596 0 1.08-.06 1.45-.181.379-.121.701-.298.967-.532.323-.282.572-.629.75-1.04.185-.411.278-.854.278-1.33zm-5.924 4.232v-8.463h2.539c.677 0 1.24.068 1.692.205.46.137.863.335 1.21.593.523.387.934.878 1.232 1.475.307.596.46 1.249.46 1.958 0 .71-.15 1.362-.447 1.959a4.068 4.068 0 01-1.234 1.475c-.346.258-.75.455-1.209.592-.459.137-1.027.206-1.704.206h-2.54zm14.832-2.176h-3.566l-.883 2.176h-1.257l3.506-8.463h.846l3.506 8.463h-1.257l-.895-2.176zm-3.083-1.149h2.611l-1.305-3.143-1.306 3.143zm7.232-.907a4.4 4.4 0 01.326-1.704 4.24 4.24 0 01.895-1.379 4.275 4.275 0 011.354-.93 4.264 4.264 0 011.704-.339c.605 0 1.177.117 1.717.35a3.747 3.747 0 011.378.956l-.81.798c-.25-.274-.58-.5-.991-.677a3.058 3.058 0 00-1.294-.279 2.999 2.999 0 00-2.188.92c-.274.281-.492.62-.653 1.015-.153.387-.23.81-.23 1.269 0 .476.081.911.242 1.306.162.395.383.733.665 1.015.29.283.629.5 1.016.653.387.153.806.23 1.257.23.282 0 .544-.036.786-.109a3.18 3.18 0 00.677-.278 3.42 3.42 0 00.544-.375 4.25 4.25 0 00.423-.435l.858.774a4.033 4.033 0 01-.64.641 4.189 4.189 0 01-1.693.81c-.314.08-.633.121-.955.121a4.64 4.64 0 01-1.753-.327 4.27 4.27 0 01-1.39-.907 4.292 4.292 0 01-.919-1.378 4.554 4.554 0 01-.326-1.741zm10.523-4.231h1.209v8.463h-1.21v-8.463zm4.234 4.231a4.5 4.5 0 01.327-1.716 4.24 4.24 0 01.895-1.379 3.983 3.983 0 011.341-.919 4.118 4.118 0 011.669-.338c.596 0 1.152.113 1.668.338.516.218.963.524 1.342.92.379.386.677.846.895 1.378a4.49 4.49 0 01.326 1.716c0 .621-.109 1.197-.326 1.729a4.417 4.417 0 01-.895 1.378 4.232 4.232 0 01-1.342.919 4.24 4.24 0 01-1.668.327 4.241 4.241 0 01-1.669-.327 4.233 4.233 0 01-1.341-.919 4.418 4.418 0 01-.895-1.378 4.522 4.522 0 01-.327-1.729zm1.21 0c0 .46.076.887.23 1.282.152.387.362.725.628 1.015.274.282.592.504.955.665a3 3 0 001.209.242 2.92 2.92 0 001.197-.242c.37-.161.689-.383.955-.665.274-.29.487-.628.64-1.015.154-.395.23-.822.23-1.282a3.42 3.42 0 00-.23-1.27 2.988 2.988 0 00-.64-1.015 2.786 2.786 0 00-.955-.677 2.913 2.913 0 00-1.197-.242 3 3 0 00-1.21.242 2.95 2.95 0 00-.954.677c-.266.282-.476.62-.629 1.016-.153.387-.23.81-.23 1.269zm2.599-4.836L77.28 94h1.27l-1.27 1.813h-.785zm8.88 2.854v6.214h-1.21v-8.463h.847l5.078 6.214v-6.214H91.3v8.463h-.846l-5.078-6.214zm14.363 4.509c.097.21.242.375.435.496.202.121.431.181.689.181.186 0 .363-.044.532-.133.178-.089.319-.201.423-.338.073-.097.129-.214.17-.351.04-.145.06-.347.06-.605v-6.008h1.209v5.924c0 .338-.024.62-.072.846a2.25 2.25 0 01-.218.592c-.21.363-.5.657-.87.883a2.325 2.325 0 01-1.234.339 2.56 2.56 0 01-1.33-.351 2.144 2.144 0 01-.87-1.016l1.076-.459zm10.469 1.826a3.667 3.667 0 01-1.463-.291 3.514 3.514 0 01-1.16-.822 3.403 3.403 0 01-.653-1.052c-.153-.402-.23-.89-.23-1.462v-4.957h1.209v5.017c0 .403.044.738.133 1.004.097.257.23.479.399.664.21.234.464.42.762.557.306.129.64.193 1.003.193.363 0 .693-.064.991-.193.307-.137.565-.323.774-.557.169-.185.298-.407.387-.664.097-.266.145-.601.145-1.004v-5.017h1.209v4.957c0 .572-.08 1.06-.242 1.462a3.229 3.229 0 01-.64 1.052c-.323.347-.71.621-1.161.822a3.664 3.664 0 01-1.463.291zm11.754-2.297h-3.566l-.883 2.176h-1.257l3.506-8.463h.846l3.506 8.463h-1.257l-.895-2.176zm-3.083-1.149h2.612l-1.306-3.143-1.306 3.143zm9.106-2.889v6.214h-1.209v-8.463h.846l5.078 6.214v-6.214h1.209v8.463h-.847l-5.077-6.214zm18.908 4.4h-.846l-2.478-3.88v5.694h-1.209v-8.463h.846l3.264 5.162 3.265-5.162h.846v8.463h-1.209v-5.695l-2.479 3.881zm12.058-.362h-3.566l-.883 2.176h-1.257l3.506-8.463h.846l3.506 8.463h-1.257l-.895-2.176zm-3.083-1.149h2.612l-1.306-3.143-1.306 3.143zm9.106-.665v3.99h-1.209v-8.463h2.962c.386 0 .709.044.967.133.258.08.483.201.677.363.258.21.459.463.604.761.153.298.23.625.23.98 0 .354-.077.68-.23.979a2.213 2.213 0 01-1.052 1.039 2.278 2.278 0 01-.544.17l3.035 4.038h-1.463l-3.01-3.99h-.967zm1.692-1.148c.274 0 .488-.029.641-.085.153-.056.278-.133.375-.23.209-.21.314-.467.314-.773 0-.154-.028-.295-.085-.424a1.062 1.062 0 00-.229-.35 1.022 1.022 0 00-.375-.23c-.153-.056-.367-.085-.641-.085h-1.692v2.177h1.692zm5.678.906a4.41 4.41 0 011.221-3.083 4.275 4.275 0 011.354-.93 4.264 4.264 0 011.705-.339c.604 0 1.176.117 1.716.35a3.752 3.752 0 011.379.956l-.81.798a2.84 2.84 0 00-.992-.677 3.057 3.057 0 00-1.293-.279 2.994 2.994 0 00-2.189.92c-.274.281-.491.62-.652 1.015-.153.387-.23.81-.23 1.269 0 .476.081.911.242 1.306.161.395.383.733.665 1.015.29.283.628.5 1.015.653.387.153.806.23 1.258.23.282 0 .544-.036.785-.109.25-.072.476-.165.677-.278.202-.113.383-.238.544-.375a4.19 4.19 0 00.424-.435l.858.774a4.006 4.006 0 01-.641.641 4.2 4.2 0 01-1.692.81c-.315.08-.633.121-.955.121a4.638 4.638 0 01-1.753-.327 4.272 4.272 0 01-1.391-.907 4.294 4.294 0 01-.919-1.378 4.565 4.565 0 01-.326-1.741zm16.447.242h-4.715v3.99h-1.209v-8.463h1.209v3.325h4.715v-3.325H190v8.463h-1.209v-3.99z"/></g><defs><clipPath id="clip0"><path fill="#fff" transform="translate(10 80)" d="M0 0h180v40H0z"/></clipPath></defs></svg>
